!!! OTL: Berkowitz485
!!! Chapter: 1
!!! Section: IV
!!! Page: 121
!!! Mode: 
!!! Encoder: DJB
**kern
*staff1
*I"Piano
=1-
*clefF4
*k[f#c#g#d#]
*E:
*M4/4
4r
4r
4r
8r
8C#/
=2
12c#\L
12A\
12F#\J
8E#\L
8G#\J
8B\L
8dn\J
8c#\
16r
16c#\
=3
12B\L
12G#\
12E\J
8D#\L
8F#\J
8A\L
8cn\J
8B\
16r
16G#\
=4
8A\L
8F#\
8D#\
8Cn\J
8BB\L
8A\J
12G#\L
12E\
12E#\J
=5
!!linebreak:original
[4F#\
12F#\L]
12F#\
12F##\J
4G#\
12r
12E\L
12Dn\J
=6
8C#\L
8E#\
8G#\
8B\J
12d#\L
12c#\
12B#\J
8c#\
16r
16C#/
=7
8BB\L
8D#\
8F#\
8A\J
12cn\L
12B\
12A#\J
8B\L
8AA#\J
=8
8BB/
4A\
[8G#\
12G#\L]
12E#\
12G#\J
4F#\
=9
!!linebreak:original
8Cn/L
8BB/J
12BB/L
12C#/
12D#/J
4F#\
8E\
8r
==
*-
